packages/core/src/svgs/tokens/branded/XDB.svg

<svg width="24" height="24" viewBox="0 0 24 24" fill="none" xmlns="http://www.w3.org/2000/svg">
<path d="M3.87499 8.24997C3.87499 9.53304 5.03873 10.7468 6.37499 10.7468C7.71122 10.7468 8.87497 9.53304 8.87497 8.24997C8.87497 6.96747 7.71122 5.74997 6.37499 5.74997C5.03873 5.74997 3.87499 6.96747 3.87499 8.24997ZM8.87497 2H10.75V8.42497C10.75 10.7437 8.79123 12.625 6.37499 12.625C3.95874 12.625 2.00063 10.5699 2.00063 8.24997C2.00063 5.9306 3.95874 3.87499 6.37561 3.87499C7.27186 3.87499 8.18123 4.09811 8.87497 4.54187V2ZM20.1249 15.7499C20.1249 14.4669 18.9611 13.2531 17.625 13.2531C16.2887 13.2531 15.125 14.4669 15.125 15.7499C15.125 17.0325 16.2887 18.2531 17.625 18.2531C18.9611 18.2531 20.1249 17.0325 20.1249 15.7499ZM15.125 22H13.25V15.595L13.2493 15.5762C13.25 13.255 15.2087 11.3749 17.625 11.3749C20.0412 11.3749 22 13.43 22 15.7499C22 18.0699 20.0412 20.1249 17.625 20.1249C16.7281 20.1249 15.8187 19.8719 15.125 19.4275V22ZM15.7499 4.49998C17.0331 4.49998 18.2525 5.66373 18.2525 6.99998C18.2525 8.33561 17.0331 9.49994 15.7499 9.49994C14.4668 9.49994 13.2512 8.33561 13.2512 6.99998C13.2512 5.66373 14.4668 4.49998 15.7499 4.49998ZM15.5743 2.625C13.2537 2.625 11.3731 4.58374 11.3731 6.99998C11.3731 9.41623 13.4294 11.3749 15.7499 11.3749C18.0705 11.3749 20.1249 9.41623 20.1249 6.99998C20.1249 6.10311 19.8711 5.19374 19.4268 4.49998H22V2.625H15.5743ZM5.74999 17C5.74999 18.3355 6.96748 19.5 8.24997 19.5C9.53244 19.5 10.7468 18.3355 10.7468 17C10.7468 15.6637 9.53244 14.5 8.24997 14.5C6.96748 14.5 5.74999 15.6637 5.74999 17ZM8.38748 21.3736L2 21.375V19.5H4.59062C4.14624 18.8063 3.87499 17.8963 3.87499 17C3.87499 14.5837 5.92999 12.625 8.24997 12.625C10.5699 12.625 12.625 14.5837 12.625 17C12.625 19.4161 10.7443 21.375 8.42497 21.375C8.41246 21.3751 8.39995 21.3747 8.38748 21.3736Z" fill="#278DC1"/>
</svg>

<svg xmlns="http://www.w3.org/2000/svg" width="24" height="24" fill="none" viewBox="0 0 24 24">
    <path fill="#278DC1" d="M3.875 8.25c0 1.283 1.164 2.497 2.5 2.497s2.5-1.214 2.5-2.497-1.164-2.5-2.5-2.5-2.5 1.217-2.5 2.5m5-6.25h1.875v6.425c0 2.319-1.959 4.2-4.375 4.2S2.001 10.57 2.001 8.25s1.958-4.375 4.375-4.375c.896 0 1.805.223 2.499.667zm11.25 13.75c0-1.283-1.164-2.497-2.5-2.497s-2.5 1.214-2.5 2.497 1.164 2.503 2.5 2.503 2.5-1.22 2.5-2.503m-5 6.25H13.25v-6.424c0-2.321 1.959-4.201 4.375-4.201S22 13.43 22 15.75s-1.959 4.375-4.375 4.375c-.897 0-1.806-.253-2.5-.698zm.625-17.5c1.283 0 2.503 1.164 2.503 2.5s-1.22 2.5-2.503 2.5-2.5-1.164-2.5-2.5 1.216-2.5 2.499-2.5m-.176-1.875c-2.32 0-4.2 1.959-4.2 4.375s2.055 4.375 4.376 4.375c2.32 0 4.375-1.959 4.375-4.375 0-.897-.254-1.806-.698-2.5H22V2.625zM5.75 17c0 1.335 1.217 2.5 2.5 2.5s2.497-1.165 2.497-2.5c0-1.336-1.215-2.5-2.497-2.5-1.283 0-2.5 1.164-2.5 2.5m2.637 4.374L2 21.375V19.5h2.59a4.76 4.76 0 0 1-.715-2.5c0-2.416 2.055-4.375 4.375-4.375s4.375 1.959 4.375 4.375-1.88 4.375-4.2 4.375z"/>
</svg>
